X: 100030
T: Johnny by Golly! 
C: BB
R: hornpipe
Q: 1/8=320
M: 4/4
L: 1/8
K: D
E|"Bm"DB,DE FEFG|"D"AF (3ABc defd|"Em"egfe "Bm"dBAB|"D"dF (3FEF "A"ECA,C|
"Bm"DB,DE FEFG|"D"AF (3ABc de f2|"Em"egfe "Bm"dBFB|"A7"AGEC "D"D3 :|
A|"G"BGBd "A"cAce|"D"dfaf "G"gdBG|"Bm"FABF "G"GBdg|"Bm"fdBG "A"A2 FA|
"G"BG (3FGF "A"cA (3ABA|"D"dcdf "Em"efge|"Bm"fdBd "G"GBdB|"A7"AGEC "D"D3 :|
